public/assets/img/tech-logo/mongodb.svg

<svg width="100" height="100" viewBox="0 0 100 100" fill="none" xmlns="http://www.w3.org/2000/svg">
<g id="mongodb">
<g id="mongodb_2">
<path id="Vector" d="M50.1455 0.27356L52.8141 5.28569C53.414 6.21062 54.064 7.02931 54.8295 7.79175C57.074 10.0082 59.1661 12.3739 61.0916 14.8725C65.6131 20.8095 68.6629 27.4028 70.8409 34.5335C72.1471 38.8894 72.8564 43.3578 72.9095 47.8763C73.1282 61.3846 68.4973 72.9838 59.1605 82.6237C57.6417 84.1524 56.001 85.5548 54.2546 86.8171C53.3296 86.8171 52.8922 86.1078 52.511 85.4547C51.8167 84.2437 51.3547 82.9137 51.1486 81.5331C50.8205 79.8989 50.6048 78.2646 50.7111 76.5772V75.8148C50.6361 75.6523 49.8205 0.657906 50.1455 0.27356Z" fill="#599636"/>
<path id="Vector_2" d="M50.1455 0.10799C50.0361 -0.110744 49.9268 0.0548687 49.8174 0.161111C49.8705 1.25478 49.4893 2.22971 48.8925 3.16089C48.2363 4.08582 47.3676 4.79514 46.4958 5.55759C41.6524 9.75103 37.8401 14.8163 34.7872 20.4815C30.725 28.1059 28.6314 36.2772 28.0377 44.8797C27.7659 47.9826 29.0189 58.9318 29.997 62.0909C32.6655 70.4778 37.4589 77.5054 43.6679 83.6049C45.1927 85.0736 46.8239 86.436 48.5113 87.7453C49.0018 87.7453 49.055 87.3078 49.1675 86.9828C49.3825 86.2874 49.5465 85.5773 49.658 84.858L50.7517 76.6898L50.1455 0.10799Z" fill="#6CAC48"/>
<path id="Vector_3" d="M52.814 90.1357C52.9234 88.8858 53.5234 87.8484 54.1765 86.8141C53.5203 86.5422 53.0328 86.0016 52.6516 85.3986C52.3228 84.8276 52.0507 84.2258 51.8391 83.6018C51.0767 81.3145 50.9142 78.9147 50.6955 76.5774V75.1619C50.4236 75.3806 50.3673 77.2305 50.3673 77.5054C50.2083 79.9758 49.8805 82.4324 49.3862 84.858C49.2237 85.8391 49.1143 86.8172 48.5112 87.689C48.5112 87.7984 48.5112 87.9077 48.5644 88.0702C49.5455 90.9575 49.8143 93.8979 49.9799 96.8945V97.9882C49.9799 99.2943 49.9268 99.0194 51.0111 99.4568C51.4485 99.6193 51.936 99.6756 52.3735 100.001C52.7016 100.001 52.7547 99.7287 52.7547 99.5099L52.5922 97.7132V92.7011C52.5391 91.8262 52.7016 90.9575 52.8109 90.1388L52.814 90.1357Z" fill="#C2BFBF"/>
</g>
</g>
</svg>

<svg xmlns="http://www.w3.org/2000/svg" width="100" height="100" fill="none"><path fill="#599636" d="m50.146.274 2.668 5.012c.6.925 1.25 1.743 2.016 2.506a70 70 0 0 1 6.262 7.08c4.521 5.938 7.57 12.53 9.749 19.661 1.306 4.356 2.015 8.825 2.069 13.343.218 13.509-4.413 25.108-13.75 34.748a40 40 0 0 1-4.905 4.193c-.925 0-1.363-.71-1.744-1.362a11.2 11.2 0 0 1-1.362-3.922c-.328-1.634-.544-3.268-.438-4.956v-.762c-.075-.163-.89-75.157-.566-75.541"/><path fill="#6CAC48" d="M50.146.108c-.11-.219-.22-.053-.329.053.053 1.094-.328 2.069-.925 3-.656.925-1.524 1.634-2.396 2.397-4.844 4.193-8.656 9.258-11.709 14.924-4.062 7.624-6.156 15.795-6.75 24.398-.271 3.103.982 14.052 1.96 17.21 2.669 8.388 7.462 15.415 13.67 21.515 1.526 1.469 3.157 2.831 4.844 4.14.49 0 .544-.437.656-.762q.324-1.045.491-2.125l1.094-8.168z"/><path fill="#C2BFBF" d="M52.814 90.136c.11-1.25.71-2.288 1.362-3.322-.656-.272-1.143-.812-1.524-1.415a10 10 0 0 1-.813-1.797c-.762-2.288-.925-4.687-1.143-7.025v-1.415c-.272.219-.329 2.069-.329 2.343a54 54 0 0 1-.98 7.353c-.163.981-.273 1.96-.876 2.831 0 .11 0 .219.053.381.981 2.888 1.25 5.828 1.416 8.825v1.093c0 1.306-.053 1.031 1.031 1.469.438.162.925.219 1.362.544.329 0 .382-.272.382-.491l-.163-1.797v-5.012c-.053-.875.11-1.743.219-2.562z"/></svg>
